X: 282
T:Mouse in the Mug, The
M:6/8
L:1/8
S:Kevin Crawford
R:Jig
Z:Richard Moon
K:G
~G3 EGD|~G3 Bdg|~e3 dBG|~A3 BAB|~G3 EGD|~G3 Bdg|~e3 dBG|AGFG3:||!
g2b agf|g2d edB|d2g edB|~A3 BAB|g2b agf|g2d edB|d2g edB|AGF G3|
g2b agf|g2d edB|d2g edB|~A3 BAB|~G3 EGD|~G3 Bdg|~e3 dBG|AGFG3||!
<end>
<start>
